X: 36674
T: Shawna's
R: reel
M: 4/4
K: Amixolydian
|:e2ef edcB|A2a2 fedf|efed cdcB|ABcd e2d2|
(3cBA eA fAeA|a2ag fedf|efed cdcB|A4 A4:|
|:A3f fedc|BggB eBcB|ABcd edcB|Acef gfec|
a2fe dcBA|BggB eBcB|ABcd efge|1 fdec d2cB:|2 fdec d4||

